X:1
T:An Cota Ruadh
R:Strathspey
Z:Transcribed 9 October, 2016 by Stephen Beitzel
C:Trad.
M:C
L:1/8
K:D
[|: d | {gBd}B>A {g}B<d {gef}e2 {g}e<g | {Gd}G2 {gBd}B>A {g}G2 {gGd}G>d | {gBd}B>A {g}B<d {gef}e2 {g}e<g | {ag}a>e {gf}g>B {g}A2 {GdGe}A :|]
[|: e | {ag}a>e {gf}g>f {gef}e>d {g}e<g | {Gd}G2 {gBd}B>A {g}G2 {gGd}G>d | {ag}a>e {gf}g>f {gef}e>d {g}e<g | {ag}a>e {gf}g>B {g}A2 {GdGe}A :|]
